**kern	**kern
*part1	*part1
*staff2	*staff1
*I"Piano	*
*clefF4	*clefG2
*k[f#]	*k[f#]
=1	=1
4DD 4D	8.f#L 8.a
.	16eK 16g
8DD 8D	8f#J 8a
4.GG 4.G	4g 4b
.	8g
=	=
4CC 4C	4e
8CC#X 8C#X	8a
4DD 4D	4f#
8BBB 8BB	8g
=	=
4.CCn 4.Cn	4.e
4.DD 4.D	4.c 4.f#
=	=
4GG 4G	8.gL
.	16bK
8GG 8G	8ddJ
4BBB 4BB	8.ggL
.	16ddK
8BBB 8BB	8bJ
=	=
4CC 4C	8.aL
.	16ccK 16ee
8CC 8C	8bJ 8dd
4DD 4D	8.aL 8.cc
.	16gK 16b
8DD 8D	8f#J 8a
=	=
4.EE 4.E	8.gL
.	16bK
.	8ddJ
4BBB 4BB	8.ggL
.	16ddK
8BBB 8BB	8bJ
=	=
4.CC 4.C	8.aL
.	16ccK 16ee
.	8bJ 8dd
4DD 4D	8.aL 8.cc
.	16gK 16b
8DD 8D	8f#J 8a
=	=
8.GL	4g
16DK	.
8BBJ	2r
4GG	.
8r	.
=||	=||
*-	*-
!!!system-decoration: {(s1,s2)}
